svg/UnitedNations-Flags/flag-lc.svg

<?xml version="1.0" encoding="UTF-8" standalone="no"?>
<!-- Created with Inkscape (http://www.inkscape.org/) --><svg:svg height="256" id="svg1" inkscape:output_extension="org.inkscape.output.svg.inkscape" inkscape:version="0.46" sodipodi:docbase="C:\Documents and Settings\Ruben\Bureaublad" sodipodi:docname="Flag_of_Saint_Lucia.svg" sodipodi:version="0.32" version="1.0" width="256" x="0.0000000" xmlns:cc="http://creativecommons.org/ns#" xmlns:dc="http://purl.org/dc/elements/1.1/" xmlns:inkscape="http://www.inkscape.org/namespaces/inkscape" xmlns:rdf="http://www.w3.org/1999/02/22-rdf-syntax-ns#" xmlns:sodipodi="http://sodipodi.sourceforge.net/DTD/sodipodi-0.dtd" xmlns:svg="http://www.w3.org/2000/svg" y="0.0000000">
  <metadata>
    <rdf:RDF xmlns:cc="http://web.resource.org/cc/" xmlns:dc="http://purl.org/dc/elements/1.1/" xmlns:rdf="http://www.w3.org/1999/02/22-rdf-syntax-ns#">
      <cc:Work rdf:about="">
        <dc:title></dc:title>
        <dc:description></dc:description>
        <dc:subject>
          <rdf:Bag>
            <rdf:li>unsorted</rdf:li>
          </rdf:Bag>
        </dc:subject>
        <dc:publisher>
          <cc:Agent rdf:about="http://www.openclipart.org/">
            <dc:title>Open Clip Art Library, Source: Wikimedia Commons, Source: Wikimedia Commons, Source: Wikimedia Commons, Source: Wikimedia Commons</dc:title>
          </cc:Agent>
        </dc:publisher>
        <dc:creator>
          <cc:Agent>
            <dc:title></dc:title>
          </cc:Agent>
        </dc:creator>
        <dc:rights>
          <cc:Agent>
            <dc:title></dc:title>
          </cc:Agent>
        </dc:rights>
        <dc:date></dc:date>
        <dc:format>image/svg+xml</dc:format>
        <dc:type rdf:resource="http://purl.org/dc/dcmitype/StillImage"/>
        <cc:license rdf:resource="http://en.wikipedia.org/wiki/Public_domain"/>
        <dc:language>en</dc:language>
      </cc:Work>
    </rdf:RDF>
  </metadata>
  <sodipodi:namedview bordercolor="#666666" borderopacity="1.0" id="base" inkscape:current-layer="svg1" inkscape:cx="299.99992" inkscape:cy="150.00028" inkscape:pageopacity="0.0" inkscape:pageshadow="2" inkscape:window-height="712" inkscape:window-width="1024" inkscape:window-x="0" inkscape:window-y="108" inkscape:zoom="1.1083333" pagecolor="#ffffff" showgrid="false"/>
  <svg:defs id="defs3">
    <inkscape:perspective id="perspective3917" inkscape:persp3d-origin="300 : 100 : 1" inkscape:vp_x="0 : 150 : 1" inkscape:vp_y="0 : 1000 : 0" inkscape:vp_z="600 : 150 : 1" sodipodi:type="inkscape:persp3d"/>
  </svg:defs>
  <svg:rect height="128" id="rect908" style="fill:#0b51a1;fill-opacity:1;fill-rule:evenodd;stroke:none;stroke-width:1pt;stroke-linecap:butt;stroke-linejoin:miter;stroke-opacity:1" width="256" x="-7.5000004e-05" y="64"/>
  <svg:path d="M 85.333258,180.73778 L 170.66659,180.73778 L 127.99993,75.26222 L 85.333258,180.73778 z" id="path1530" style="fill:#ffffff;fill-opacity:1;fill-rule:evenodd;stroke:none;stroke-width:1pt;stroke-linecap:butt;stroke-linejoin:miter;stroke-opacity:1"/>
  <svg:path d="M 91.084369,180.73778 L 164.91548,180.73778 L 127.99993,89.48445 L 91.084369,180.73778 z" id="path2152" style="fill:#000000;fill-opacity:1;fill-rule:evenodd;stroke:none;stroke-width:1pt;stroke-linecap:butt;stroke-linejoin:miter;stroke-opacity:1"/>
  <svg:path d="M 85.33326,180.95112 L 170.66659,180.95112 L 127.99993,128.22223 L 85.33326,180.95112 z" id="path2774" style="fill:#fcd116;fill-opacity:1;fill-rule:evenodd;stroke:none;stroke-width:1pt;stroke-linecap:butt;stroke-linejoin:miter;stroke-opacity:1"/>
</svg:svg>

<svg viewBox="0 0 256 256"><g fill-rule="evenodd"><path fill="#0b51a1" d="m0 64h256v128h-256z"/><path d="m85.33 180.74h85.33l-42.667-105.48-42.667 105.48" fill="#fff"/><path d="m91.08 180.74h73.831l-36.916-91.25-36.916 91.25"/><path d="m85.33 180.95h85.33l-42.667-52.729-42.667 52.729" fill="#fcd116"/></g></svg>
